storage/app/icons/tabler/filled/box-align-bottom-left.svg

<!--
version: "2.19"
unicode: "fa8b"
-->
<svg
  xmlns="http://www.w3.org/2000/svg"
  width="24"
  height="24"
  viewBox="0 0 24 24"
  fill="currentColor"
>
  <path d="M10 12h-5a2 2 0 0 0 -2 2v5a2 2 0 0 0 2 2h5a2 2 0 0 0 2 -2v-5a2 2 0 0 0 -2 -2z" />
  <path d="M4 8a1 1 0 0 1 .993 .883l.007 .127a1 1 0 0 1 -1.993 .117l-.007 -.127a1 1 0 0 1 1 -1z" />
  <path d="M4 3a1 1 0 0 1 .993 .883l.007 .127a1 1 0 0 1 -1.993 .117l-.007 -.127a1 1 0 0 1 1 -1z" />
  <path d="M9 3a1 1 0 0 1 .993 .883l.007 .127a1 1 0 0 1 -1.993 .117l-.007 -.127a1 1 0 0 1 1 -1z" />
  <path d="M15 3a1 1 0 0 1 .993 .883l.007 .127a1 1 0 0 1 -1.993 .117l-.007 -.127a1 1 0 0 1 1 -1z" />
  <path d="M15 19a1 1 0 0 1 .993 .883l.007 .127a1 1 0 0 1 -1.993 .117l-.007 -.127a1 1 0 0 1 1 -1z" />
  <path d="M20 3a1 1 0 0 1 .993 .883l.007 .127a1 1 0 0 1 -1.993 .117l-.007 -.127a1 1 0 0 1 1 -1z" />
  <path d="M20 8a1 1 0 0 1 .993 .883l.007 .127a1 1 0 0 1 -1.993 .117l-.007 -.127a1 1 0 0 1 1 -1z" />
  <path d="M20 14a1 1 0 0 1 .993 .883l.007 .127a1 1 0 0 1 -1.993 .117l-.007 -.127a1 1 0 0 1 1 -1z" />
  <path d="M20 19a1 1 0 0 1 .993 .883l.007 .127a1 1 0 0 1 -1.993 .117l-.007 -.127a1 1 0 0 1 1 -1z" />
</svg>

<svg xmlns="http://www.w3.org/2000/svg" width="24" height="24" fill="currentColor" viewBox="0 0 24 24"><path d="M10 12H5a2 2 0 0 0-2 2v5a2 2 0 0 0 2 2h5a2 2 0 0 0 2-2v-5a2 2 0 0 0-2-2M4 8a1 1 0 0 1 .993.883L5 9.01a1 1 0 0 1-1.993.117L3 9a1 1 0 0 1 1-1m0-5a1 1 0 0 1 .993.883L5 4.01a1 1 0 0 1-1.993.117L3 4a1 1 0 0 1 1-1m5 0a1 1 0 0 1 .993.883L10 4.01a1 1 0 0 1-1.993.117L8 4a1 1 0 0 1 1-1m6 0a1 1 0 0 1 .993.883L16 4.01a1 1 0 0 1-1.993.117L14 4a1 1 0 0 1 1-1m0 16a1 1 0 0 1 .993.883l.007.127a1 1 0 0 1-1.993.117L14 20a1 1 0 0 1 1-1m5-16a1 1 0 0 1 .993.883L21 4.01a1 1 0 0 1-1.993.117L19 4a1 1 0 0 1 1-1m0 5a1 1 0 0 1 .993.883L21 9.01a1 1 0 0 1-1.993.117L19 9a1 1 0 0 1 1-1m0 6a1 1 0 0 1 .993.883l.007.127a1 1 0 0 1-1.993.117L19 15a1 1 0 0 1 1-1m0 5a1 1 0 0 1 .993.883l.007.127a1 1 0 0 1-1.993.117L19 20a1 1 0 0 1 1-1"/></svg>
